X:12561
T:Paddy Carey
R:Jig
O:England
M:6/8
A:Lancashire
B:Winder
K:D
d |\
A2d dcd | f2d dcd | B2e e2f | gfe dcB | \
A2d dcd | f2d dcd | ecA ABc | e3 d2 :|*
|:A|\
d2f g2b | a2b afd | d2f g2b | agf e2A |\
d2f g2b | a2b afd | dcB ABc | e3 def |\
g2e ede | f2d dcd | ecA ABc | dec def | \
g2e ede | f2d dcd | ecA ABc | e3 d2 :|**
